apps/dapp/src/assets/images/lock.svg

<svg fill="none" height="36" viewBox="0 0 36 36" width="36" xmlns="http://www.w3.org/2000/svg"><g fill="#fff"><path d="m17.9998 0c-5.5577 0-10.07939 4.52166-10.07939 10.0795v4.9355c0 .336.27274.6086.60884.6086h3.37905c.336 0 .6086-.2726.6086-.6086v-4.9355c0-3.02329 2.4596-5.48296 5.4829-5.48296s5.4829 2.45967 5.4829 5.48296v4.9355c0 .336.2728.6086.609.6086h3.379c.3361 0 .6086-.2726.6086-.6086v-4.9355c.0001-5.55784-4.5216-10.0795-10.0795-10.0795zm8.8623 14.4063h-2.162v-4.3268c0-3.69449-3.0057-6.70021-6.7001-6.70021s-6.7002 3.00572-6.7002 6.70021v4.3268h-2.16193v-4.3268c0-4.88664 3.97543-8.86218 8.86203-8.86218 4.8867 0 8.8622 3.97554 8.8622 8.86218z"/><path d="m28.8725 14.4064h-21.74478c-1.44176 0-2.61478 1.173-2.61478 2.6148v16.3641c0 1.4417 1.17302 2.6147 2.61478 2.6147h21.74478c1.4418 0 2.6147-1.173 2.6147-2.6148v-16.364c0-1.4418-1.1729-2.6148-2.6147-2.6148zm1.3975 18.9788c0 .7706-.6269 1.3975-1.3975 1.3975h-21.74478c-.77062 0-1.39753-.6269-1.39753-1.3975v-16.364c0-.7707.62691-1.3976 1.39753-1.3976h21.74478c.7706 0 1.3975.6269 1.3975 1.3976z"/><path d="m20.0468 26.0002c.7111-.5991 1.1248-1.475 1.1248-2.4162 0-1.7489-1.4228-3.1718-3.1717-3.1718s-3.1718 1.4229-3.1718 3.1718c0 .9412.4138 1.8171 1.125 2.4164l-.6842 3.2598c-.0376.1796.0076.3664.1232.5088.1157.1422.2892.225.4725.225h4.2706c.1834 0 .3569-.0827.4725-.225.1155-.1425.1607-.3293.1231-.5086zm-1.0026-.7706c-.2137.1361-.321.3904-.2689.6385l.6103 2.9085h-2.7713l.6104-2.9083c.0521-.2482-.055-.5025-.2688-.6385-.5701-.3629-.9105-.9782-.9105-1.6458 0-1.0777.8768-1.9544 1.9545-1.9544s1.9544.8767 1.9544 1.9544c.0002.6678-.3401 1.2829-.9101 1.6456z"/></g></svg>

<svg width="36" height="36" viewBox="0 0 36 36" fill="none" xmlns="http://www.w3.org/2000/svg">
<path d="M17.9998 0C12.4421 0 7.92041 4.52166 7.92041 10.0795V15.015C7.92041 15.351 8.19315 15.6236 8.52925 15.6236H11.9083C12.2443 15.6236 12.5169 15.351 12.5169 15.015V10.0795C12.5169 7.05621 14.9765 4.59654 17.9998 4.59654C21.0231 4.59654 23.4827 7.05621 23.4827 10.0795V15.015C23.4827 15.351 23.7555 15.6236 24.0917 15.6236H27.4707C27.8068 15.6236 28.0793 15.351 28.0793 15.015V10.0795C28.0794 4.52166 23.5577 0 17.9998 0ZM26.8621 14.4063H24.7001V10.0795C24.7001 6.38501 21.6944 3.37929 18 3.37929C14.3056 3.37929 11.2998 6.38501 11.2998 10.0795V14.4063H9.13787V10.0795C9.13787 5.19286 13.1133 1.21732 17.9999 1.21732C22.8866 1.21732 26.8621 5.19286 26.8621 10.0795V14.4063Z" fill="white"/>
<path d="M28.8725 14.4064H7.12772C5.68596 14.4064 4.51294 15.5794 4.51294 17.0212V33.3853C4.51294 34.827 5.68596 36 7.12772 36H28.8725C30.3143 36 31.4872 34.827 31.4872 33.3852V17.0212C31.4872 15.5794 30.3143 14.4064 28.8725 14.4064ZM30.27 33.3852C30.27 34.1558 29.6431 34.7827 28.8725 34.7827H7.12772C6.3571 34.7827 5.73019 34.1558 5.73019 33.3852V17.0212C5.73019 16.2505 6.3571 15.6236 7.12772 15.6236H28.8725C29.6431 15.6236 30.27 16.2505 30.27 17.0212V33.3852Z" fill="white"/>
<path d="M20.0468 26.0002C20.7579 25.4011 21.1716 24.5252 21.1716 23.584C21.1716 21.8351 19.7488 20.4122 17.9999 20.4122C16.251 20.4122 14.8281 21.8351 14.8281 23.584C14.8281 24.5252 15.2419 25.4011 15.9531 26.0004L15.2689 29.2602C15.2313 29.4398 15.2765 29.6266 15.3921 29.769C15.5078 29.9112 15.6813 29.994 15.8646 29.994H20.1352C20.3186 29.994 20.4921 29.9113 20.6077 29.769C20.7232 29.6265 20.7684 29.4397 20.7308 29.2604L20.0468 26.0002ZM19.0442 25.2296C18.8305 25.3657 18.7232 25.62 18.7753 25.8681L19.3856 28.7766H16.6143L17.2247 25.8683C17.2768 25.6201 17.1697 25.3658 16.9559 25.2298C16.3858 24.8669 16.0454 24.2516 16.0454 23.584C16.0454 22.5063 16.9222 21.6296 17.9999 21.6296C19.0776 21.6296 19.9543 22.5063 19.9543 23.584C19.9545 24.2518 19.6142 24.8669 19.0442 25.2296Z" fill="white"/>
</svg>
